school/img/country/MY.svg

<svg width="13" height="12" viewBox="0 0 13 12" fill="none" xmlns="http://www.w3.org/2000/svg">
<rect width="13" height="12" rx="2" fill="white"/>
<mask id="mask0" mask-type="alpha" maskUnits="userSpaceOnUse" x="0" y="0" width="13" height="12">
<rect width="13" height="12" rx="2" fill="white"/>
</mask>
<g mask="url(#mask0)">
<path fill-rule="evenodd" clip-rule="evenodd" d="M13 0H6.19045V0.8H13V0ZM13 1.6H6.19045V2.4H13V1.6ZM6.19045 3.2H13V4H6.19045V3.2ZM13 4.8H6.19045V5.6H13V4.8ZM0 6.4H13V7.2H0V6.4ZM13 8H0V8.8H13V8ZM0 9.6H13V10.4H0V9.6ZM13 11.2H0V12H13V11.2Z" fill="#E1244A"/>
<rect width="7.42857" height="6.4" fill="#0C3F8E"/>
<path fill-rule="evenodd" clip-rule="evenodd" d="M3.0953 5.59999C3.5341 5.59999 3.93736 5.40332 4.25517 5.07448C4.08682 5.15563 3.90459 5.19999 3.71435 5.19999C2.85962 5.19999 2.16673 4.30456 2.16673 3.19999C2.16673 2.09542 2.85962 1.19999 3.71435 1.19999C3.9046 1.19999 4.08682 1.24435 4.25518 1.32551C3.93737 0.996658 3.53411 0.799988 3.0953 0.799988C2.06963 0.799988 1.23816 1.8745 1.23816 3.19999C1.23816 4.52547 2.06963 5.59999 3.0953 5.59999ZM4.41523 4.64153L4.95242 3.85598L5.48961 4.64153L5.3493 3.60899L6.15948 3.55602L5.44732 3.05401L5.92041 2.2024L5.17267 2.60895L4.95242 1.59998L4.73218 2.60895L3.98444 2.2024L4.45753 3.05401L3.74537 3.55602L4.55555 3.60899L4.41523 4.64153Z" fill="#FFD34F"/>
</g>
</svg>

<svg width="13" height="12" fill="none" xmlns="http://www.w3.org/2000/svg"><rect width="13" height="12" rx="2" fill="#fff"/><mask id="a" maskUnits="userSpaceOnUse" x="0" y="0" width="13" height="12"><rect width="13" height="12" rx="2" fill="#fff"/></mask><g mask="url(#a)"><path fill-rule="evenodd" clip-rule="evenodd" d="M13 0H6.19v.8H13V0zm0 1.6H6.19v.8H13v-.8zM6.19 3.2H13V4H6.19v-.8zM13 4.8H6.19v.8H13v-.8zM0 6.4h13v.8H0v-.8zM13 8H0v.8h13V8zM0 9.6h13v.8H0v-.8zm13 1.6H0v.8h13v-.8z" fill="#E1244A"/><path fill="#0C3F8E" d="M0 0h7.429v6.4H0z"/><path fill-rule="evenodd" clip-rule="evenodd" d="M3.095 5.6c.44 0 .842-.197 1.16-.526-.168.082-.35.126-.54.126-.855 0-1.548-.895-1.548-2s.693-2 1.547-2c.19 0 .373.044.541.126C3.937.996 3.535.8 3.095.8 2.07.8 1.238 1.875 1.238 3.2s.832 2.4 1.857 2.4zm1.32-.958l.537-.786.538.786-.14-1.033.81-.053-.713-.502.473-.852-.747.407-.22-1.009-.22 1.009-.749-.407.474.852-.713.502.81.053-.14 1.033z" fill="#FFD34F"/></g></svg>
